X:46
T: Britches Full Of Stitches
R: polka
M: 2/4
L: 1/8
K: Dmaj 
|: "D" d>e fd | "A" ed fd | "D" d>e fd | "G" edB2 |
   "D" d>e fd | "A" ed fa | "D" d>e dB | "A" BA A2 :|
|: "D" a>b af   | "A" ed ef | "D" a>b af   | "G" ede2  |
   "D" a>b af   | "A" ed ef | "G" d>e dB | "A" BA "D" A2 :|

